X:54
T:Mystery Tune
M:4/4
L:1/8
S: from Stuart Wiltshire (Belfagan)
K:Dm
d2 dd d2 dd | d2 cd fdcA | B2 cc dccc | A2 cc dcBA | G2 dd d2 dd | d2 cd
fgab |
c'bgb fdcA | G6 ||
ab | g2 dd ddab | g2 dd dddd | c2 cd fcfg | abga f2 ab | g2 dd ddab | g2
dd ddab | c'aga fdcA | G8 ||
